X: 3
T: Alice's
R: reel
M: 4/4
L: 1/8
K: Amin
|:Acec dcAG|A2cA GAEG|Acec d2 (3efg|a2ge dcAG|
Acec dcAG|A2cA GAEG|GEDE GABd|1e2dB cAAG:|2ecdB cAAB|
|:c2GE Gcec|d2AF Afed|c2GE Gcec| dfed cAAB|
c2GE Gcec|D2 FA Afed|c2GE Gcec| dfed cAAG:||


Tune 179	Setting 179

